austria/municipalities/61002.svg

<svg xmlns="http://www.w3.org/2000/svg" xml:space="preserve" width="120" height="144" viewBox="0 0 31.75 38.1"><defs><clipPath id="a"><path fill="#da121a" stroke-width=".529" d="M.53.53v21.695c0 8.475 6.87 15.346 15.345 15.346 8.475 0 15.346-6.87 15.346-15.346V.53z"/></clipPath></defs><path d="M0 0v22.225C0 30.993 7.108 38.1 15.875 38.1c8.768 0 15.875-7.107 15.875-15.875V0z"/><path fill="#da121a" d="M.53.53v21.695c0 8.475 6.87 15.346 15.345 15.346 8.475 0 15.346-6.87 15.346-15.346V.53z"/><g clip-path="url(#a)"><path fill="#fcdd09" d="m2.675 36.514 6.821-10.7 3.37 5.163.723-1.177 7.024-.562 1.804-3.05 6.634 8.935-.054 5.457-26.724-.508.402-3.558 8.959-7.426 1.874-3.406 3.692.4 1.9.99 2.353 3.37.482-.696 2.354 3.424z"/><g fill="none" stroke="#000" stroke-linecap="round" stroke-linejoin="round" stroke-width=".265"><path d="m2.675 36.514 6.821-10.7 3.37 5.163.723-1.177 3.103 4.842"/><path d="m11.634 29.088 1.875-3.407 3.691.4 1.9.99 2.354 3.37.481-.695 2.354 3.424"/><path d="m20.613 29.238 1.804-3.05 6.634 8.935-.054 5.457-26.724-.508.402-3.558"/></g></g><g stroke="#000" stroke-linecap="round" stroke-linejoin="round" stroke-width=".265"><path d="M12.735 26.009c-.416.283-.761.78.118 1.423-.113-.6.02-1.225.175-1.3.156-.076-.293-.123-.293-.123zm1.064.245c-.577.407-.563.94-.388 1.31.133-.497.416-.813.771-.875.355-.061-.383-.435-.383-.435zm2.761.918c-.577.44-.79.662-.685 1.423.32-.255.884-.884.917-1.03.032-.147-.232-.393-.232-.393zm2.809-.132c.549.506.506 1.182-.336 1.447.156-.307.128-1.073-.09-1.24-.217-.165.426-.207.426-.207z" fill="#fcdd09"/><g fill="#fcdd09"><path d="M16.264 22.631c-.482 1.31-1.09 2.267-1.699 2.427s-1.698-.214-1.98.569c-.28.782.34.778.545.743.205-.035.145.186.299.16.153-.027.695-.241.474.534.395.395.776-.207.876-.628.1-.422 1.278-.321 1.278-.321s-.274-.662.06-1.264 1.37-1.873 1.37-1.873z"/><path d="M15.954 25.627c-.751-.078-1.073.244-.865 1.282.232-.56.71-.655 1.045-.58.336.076-.18-.702-.18-.702z"/><path d="M18.13 22.872c-.214 1.117-.783 1.986-.803 2.521-.214-.12-.414.29-.615.29-.2 0-.497-.444-.837-.31-.34.134-.22.214-.093.602.128.388-.303.689.093.729.396.04.924-.502 1.305-.381-.234.053-.394.274-.414.401a.721.721 0 0 0-.582.602c-.047.28.26.094.368.334.107.241.066.408.428.241.36-.167.454-.1.448-.575-.007-.475.081-.448.307-.528.226-.08.796.347.95.615.154.267.453.086.624-.04.172-.127.747.1.219-.408-.529-.508-1.057-.265-1.291-.908-.234-.644-.338-.59.548-2.055.887-1.464-.655-1.13-.655-1.13z"/></g><path fill="none" d="M14.603 25.488c-.072.304-.31.48-.7.43-.362-.046-.887.22-.474.611"/></g><g fill="#fcdd09" stroke="#000" stroke-linecap="round" stroke-linejoin="round" stroke-width=".265"><path d="M11.463 5.404c1.264-.629 1.596-.823 3.03-.408-.053-.529-1.853-.937-2.388-.642-.535.294-1.605.809-.916-1.003-1.605.648-1.033 2.703.274 2.053z"/><path d="M18.525 11.001a.822.822 0 0 1-.568-.97c.3.435.535.515.822.154-.441-.374-.81-.956-.722-1.197.308.24 1.023.341 1.25-.18-.267.02-.588-.201-.595-.308-.006-.107.02-.997-.314-1.284.348-.134.79.368.79.368.4-.836-1.372-1.244-1.345-1.886.642.187 1.498-.321 1.257-1.645-.267.4-.99 1.45-1.678.214-.69-1.238.053-1.324-1.572-1.686-1.625-.36-1.264-.32-1.96.04-.695.362-.628.482-.956.482s-1.277-.06-1.09 1.19c.455-.441 2.36.234 2.448.382-.12.26-1.144.294-1.485.214.281.548 1.137.595 1.137.595s.843.147.642.856c-.2.709-.508.796-.83.628-.08.676.73.79.997.629-.127.635-.508 1.244-1.117.903.281.816.863.749.863.749.114.568-.93 1.424-2.274 1.17-1.344-.254-2.748-1.184-2.949-1.632-.2-.448.114-.943-.401-1.631s-.783-1.258-.709-1.913c.074-.655-.568-.75-1.164-.234C6.407 5.524 5.8 6.8 5.411 7.764c-.388.963-.742 2.107-1.157 1.792-.415-.314-.615-.481-.615-.481-.1.609.394 1.137.802 1.19-.214.402-.572 2.796-.534 4.196.037 1.4-.53 3.12-1.306 3.111.965.407 1.457-.51 1.457-.51.076.652 1.362 5.967.983 7.84.89-.378.89-1.23.89-1.23.274-.018.7-1.02.69-1.305.36-.312.766-1.409.71-1.825.387-.369.567-1.39.482-1.854.236-.132.35-.51.397-.813.104.34.586.775.775-.369.284 1.088.823.643.927 0 .303.984.814.53.785.047.312.785.785.511.955.104.161.54.7.218.795-.094-.01.53.454.388.955.028-.057.624-.586 1.078-1.04 1.21.68.266 1.371-.283 1.371-.283.16.586-.057 1.135-.501 1.267.785.454 1.173-.34 1.201-.283.16 1.2 1.248 2.137 1.447 2.411.199.275.217.89-.86 1.031.094.284.7.416 1.323.123-.094.407-.17.615-.17.615.303-.123.643-.34.785-.54-.066.332-.284.833-.284.833.7-.01 1.211-.388 1.325-.539.113.227.605.615.747.804s.123.473.123.473.208-.937-.048-1.495c.445.795.426 1.022 1.06 1.258-.152-.368-.464-.68-.53-1.05.378-.047.624-.397.322-.888.558.974 3.215 3.924 4.747 4.454.199-.047.284-.274.284-.274.331.217 1.21.217 1.002-.69.672-.133.785-.88.284-1.164.114-.321-.217-1.22-.586-1.343-.123-.454-.842-1.702-1.107-1.816s-1.456.085-2.317-.53c-.86-.614-2.307-.86-2.563-3.83.256.435 1.069.558 1.069.076.331.539.889.757.7-.142.501.813.804.766.936.208.218.681.738.388.804-.028.17.823.501.823.615.586.236.142-.114 1.04.189.927.303-.114.492-.567.492-.567-.133.718.255 2.014.444 1.938-.17.662.53 1.901.747 1.977.133.719.388 1.069.738 1.069.293 1.191.804 1.626.804 1.626-.284-1.967.19-7.046.7-8.076.766.425 1.002.397 1.002.397-.577-.634-.775-1.967-.7-3.377.076-1.409-.614-3.726-.614-3.726.51.038.728-.274.728-.823-.274.331-.936.294-1.078-.227-.142-.52-1.57-3.764-1.977-4.104-.407-.34-1.343-.795-1.475.246-.133 1.04-.398 1.324-.672 1.957-.274.634-.217 2.1-1.617 2.582-1.4.483-2.38.221-2.727 1.137z"/><path d="M14.639 3.33c.388.241.615.054.91.067.294.014.3.381.695.515-.495.114-.542.462-1.03.328s-.588-.602-.588-.602"/></g><circle cx="15.268" cy="3.832" r=".294"/><g fill="none" stroke="#000" stroke-linecap="round" stroke-linejoin="round" stroke-width=".265"><path d="M13.785 5.465c.692-.274.774-.597.774-.817 0-.22-1.312-1.291-1.368-1.599m3.541 1.619c.575.2.294 1.411.77 1.752-.803.294-.625-.475-1.126-.97"/><path d="M17.181 6.485c.327.43.864.698 1.216.73"/><path d="M17.512 6.819c.418.651.485 1.373.164 1.788-.321.415-.042 1.097-.042 1.097-.293-.16-1.037-.957-.585-1.619"/><path d="M15.875 6.213c-.206.582.086.976.63 1.204.544.227-.393.91-.26 1.424.131.515.588.535.588 1.084 0 .548.274.44.274.44s-.076-.637.105-1.054m-1.534-1.38c-.109.582-.903 1.365-1.179 1.318m1.03-.154c.281.348.407.77.083 1.15-.324.382-.404.642-.41 1.03-.007.388-.405.89-.51.983.095-.4-.234-1.123-.28-1.284-.045-.16.368-.354.368-.528s-.51-.596-.51-.596"/><path d="M16.342 9.076c-.098.434.276.722.17 1.076-.108.353-.656 1.29-.462 1.712-.455-.127-.524-1.154-.586-1.43m1.881.427c.337.06.565.134.445.609-.121.474.447.625.855.526-.294-.393-.229-.721-.12-.995m-1.549 10.306c.816.568 1.022 2.13 1.022 2.13m3.79-1.696c.742.495 3.615 1.78 3.615 1.78m-3.747-1.312c1.022.916 3.908 2.608 4.334 2.655m-4.697-2.233c.689.655 3.89 3.195 4.413 3.396m-4.908-3.155c.642.903 3.416 3.587 3.905 3.846M4.7 14.347c.105-2.185 1.183-6.337 1.74-7.122.559-.785 1.277-1.191 1.325.133.047 1.324-.256 2.213-.047 2.847.208.633.324 1.178.977.76"/><path d="M8.18 10.139c.616.284.464 1.078.672 1.513.208.435 1.034.874 1.024-.378.083 1.023 1.18 1.532 1.908.51M7.282 7.207c-.274.592-.662.747-.841 1.589-.18.841-1.022 3.735-1.069 5.145-.047 1.409-1.125 2.763-1.315 3.12"/><path d="M5.483 12.949c.148.42 1.386 1.392.828-1.792"/><path d="M7.381 11.346c0 .643.44 1.517.128 1.772-.312.255-1.07-.293-1.07-.293"/><path d="M8.323 11.652c.283.549.51 1.125.151 1.324-.36.199-.658.063-.859-.049M5.043 15.32c.308.692 1.35 2.186 1.757.919"/><path d="M5.372 13.941c.298.87 1.088 2.298 1.428 2.298s.751-.33.683-.813"/><path d="M6.342 13.235c.172.7.9 2.087 1.14 2.19.242.104.717-.125.737-.335"/><path d="M7.22 13.181c.142.574.758 1.81 1 1.909.24.098.737-.07.654-.43"/><path d="M8.208 13.069c.11.455.48 1.462.666 1.59.186.128.664-.208.73-.435"/><path d="M9.302 12.862c.231.378.25 1.228.302 1.362.052.134.473.482.733.033"/><path d="M10.37 13.131c.1.318-.07.904-.033 1.127.038.222.74.819 1.279-.126m.258.059c-.126.515-.227 2.502-.222 3.466"/></g><path fill="#fcdd09" stroke="#000" stroke-linecap="round" stroke-linejoin="round" stroke-width=".265" d="M12.807 10.463c-.125.385.367.725.547.763-.34.425-.86.662-1.03 1.097-.171.435-.048.785-.332 1.078-.284.293-.567.473-.69.501.397.417.898.407 1.352-.189-.104.388-.312.52-.378.776-.066.255.321 1.087-.965.823.794.595.927.586 1.457.255-.076.823-.114 1.05-.757 1.4.653.454.851.265 1.21-.066.161.283.23.438.18.69"/><g fill="none" stroke="#000" stroke-linecap="round" stroke-linejoin="round" stroke-width=".265"><path d="M10.931 14.649c-.004.515-.265 2.623-.234 2.905M10 14.48c.048.549-.112 2.743-.089 3.026m-.866-2.826c.025.433-.09 2.5-.06 2.826m-.884-2.236c.228.432.105 2.273.108 2.605m-.766-2.091c.09.242.29 2.443.37 2.905M6.8 16.239c.236.626.445 3.963.53 4.303m-1.219-3.871c.32 1.516.504 5.351.51 5.697M5.043 15.32c.494 2.108.982 6.947.887 8.353m21.155-10.044c-.374-2.595-1.552-6.61-2.006-6.943-.455-.334-1.03-.213-.923.737s.604 3.34-.627 3.166"/><path d="M23.888 6.306c-.214.275.17.667.336.472m-.517 3.18c-.04.394-.488 1.477-.823 1.839s-.637.21-.797.029"/><path d="M22.149 11.329c.013.368-.06.79-.548.996-.489.208-.917-.107-.917-.107m4-5.257c.851 1.872 1.4 4.472 1.702 5.77.303 1.296.234 3.272 1.268 4.208m-4.18-5.496c-.077.553-.123 1.58.274 1.627.397.047.71-.35.71-.35"/><path d="M24.42 11.196c-.076.616-.19 1.344.038 1.524s.813.038.917-.104"/><path d="M25.555 11.196c-.199.503-.227 1.146-.18 1.42.048.274.464.59.71.59m-4.465-.353c.104.757.096 1.504-.203 1.655-.298.151-1.168.075-.941-.746"/><path d="M22.623 12.528c.057.75-.057 1.61-.284 1.895-.227.285-.64.092-.78-.063"/><path d="M23.748 13.07c-.047.691-.34 1.36-.634 1.494-.293.135-.67-.302-.631-.44"/><path d="M24.771 12.805c-.127.704-.796 1.988-.983 2.128-.187.14-.667-.146-.444-.579"/><path d="M25.775 13.099c-.135.662-.824 2.209-1.185 2.423-.36.214-.895-.378-.802-.589"/><path d="M26.316 14.017c-.1.555-.709 1.806-.936 1.986-.228.18-.975-.18-.79-.481"/><path d="M25.379 16.003c-.128.207.34.655.696.555.356-.1.581-.421.826-.942-.205 1.183-1.016 6.09-.75 7.772"/><path d="M26.075 16.558c-.635 1.993-.753 5.385-.662 5.762m.063-5.992c-.504 1.06-.59 3.224-.81 4.016m.008-4.511c-.32.594-.276 1.698-.453 2.572m-.392-3.25c-.44.329-.274 2.448-.203 3.09m-.511-3.68c-.482.92-.313 2.136-.19 2.894m-.654-2.968c-.315.94-.269 2.55-.15 2.997m-.703-2.98c-.445.761-.517 2.16-.233 2.771m-.558-2.846c-.411.965-.393 2.596-.142 2.989m-.945-2.134c-.255.724-.164 1.437-.123 2.057m-3.3-3.977c-.08.615.207 1.57.856.782m-2.046-1.151c-.413.756.074 2.168.803 1.2"/><path d="M13.984 12.73c-.12.588.045 1.923.859 1.371"/><path d="M12.654 13.714c.24-.318.44-.507.44-.507s-.2 1.602 1.018.749m-1.051.442c-.027.582.224 1.133.953.939m1.461-.31c-.02.408.537 1.489.863-.11.067 1.454.809.951 1.15.15"/><path d="M14.031 14.658c-.268.594.403 2.25 1.117.48m.526.484c-.139.93.136 2.06 1.119.73-.368 1.611 1.39.789 1.538-.288m-4.675.253c.18.93.96 1.715 1.277-.12"/><path d="M14.607 17.145c-.136.797.405 1.863 1.254.332-.114 1.44 1.135.835 1.324-.223"/></g></svg>

<svg xmlns="http://www.w3.org/2000/svg" xml:space="preserve" width="120" height="144" viewBox="0 0 31.75 38.1"><defs><clipPath id="a"><path fill="#da121a" stroke-width=".529" d="M.53.53v21.695c0 8.475 6.87 15.346 15.345 15.346 8.475 0 15.346-6.87 15.346-15.346V.53z"/></clipPath></defs><path d="M0 0v22.225C0 30.993 7.108 38.1 15.875 38.1c8.768 0 15.875-7.107 15.875-15.875V0z"/><path fill="#da121a" d="M.53.53v21.695c0 8.475 6.87 15.346 15.345 15.346 8.475 0 15.346-6.87 15.346-15.346V.53z"/><g clip-path="url(#a)"><path fill="#fcdd09" d="m2.675 36.514 6.821-10.7 3.37 5.163.723-1.177 7.024-.562 1.804-3.05 6.634 8.935-.054 5.457-26.724-.508.402-3.558 8.959-7.426 1.874-3.406 3.692.4 1.9.99 2.353 3.37.482-.696 2.354 3.424z"/><g fill="none" stroke="#000" stroke-linecap="round" stroke-linejoin="round" stroke-width=".265"><path d="m2.675 36.514 6.821-10.7 3.37 5.163.723-1.177 3.103 4.842"/><path d="m11.634 29.088 1.875-3.407 3.691.4 1.9.99 2.354 3.37.481-.695 2.354 3.424"/><path d="m20.613 29.238 1.804-3.05 6.634 8.935-.054 5.457-26.724-.508.402-3.558"/></g></g><g stroke="#000" stroke-linecap="round" stroke-linejoin="round" stroke-width=".265"><g fill="#fcdd09"><path d="M12.735 26.009c-.416.283-.761.78.118 1.423-.113-.6.02-1.225.175-1.3.156-.076-.293-.123-.293-.123zM13.799 26.254c-.577.407-.563.94-.388 1.31.133-.497.416-.813.771-.875.355-.061-.383-.435-.383-.435zM16.56 27.172c-.577.44-.79.662-.685 1.423.32-.255.884-.884.917-1.03.032-.147-.232-.393-.232-.393zM19.369 27.04c.549.506.506 1.182-.336 1.447.156-.307.128-1.073-.09-1.24-.217-.165.426-.207.426-.207z"/></g><g fill="#fcdd09"><path d="M16.264 22.631c-.482 1.31-1.09 2.267-1.699 2.427s-1.698-.214-1.98.569c-.28.782.34.778.545.743.205-.035.145.186.299.16.153-.027.695-.241.474.534.395.395.776-.207.876-.628.1-.422 1.278-.321 1.278-.321s-.274-.662.06-1.264 1.37-1.873 1.37-1.873z"/><path d="M15.954 25.627c-.751-.078-1.073.244-.865 1.282.232-.56.71-.655 1.045-.58.336.076-.18-.702-.18-.702z"/><path d="M18.13 22.872c-.214 1.117-.783 1.986-.803 2.521-.214-.12-.414.29-.615.29-.2 0-.497-.444-.837-.31-.34.134-.22.214-.093.602.128.388-.303.689.093.729.396.04.924-.502 1.305-.381-.234.053-.394.274-.414.401a.721.721 0 0 0-.582.602c-.047.28.26.094.368.334.107.241.066.408.428.241.36-.167.454-.1.448-.575-.007-.475.081-.448.307-.528.226-.08.796.347.95.615.154.267.453.086.624-.04.172-.127.747.1.219-.408-.529-.508-1.057-.265-1.291-.908-.234-.644-.338-.59.548-2.055.887-1.464-.655-1.13-.655-1.13z"/></g><path fill="none" d="M14.603 25.488c-.072.304-.31.48-.7.43-.362-.046-.887.22-.474.611"/></g><g fill="#fcdd09" stroke="#000" stroke-linecap="round" stroke-linejoin="round" stroke-width=".265"><path d="M11.463 5.404c1.264-.629 1.596-.823 3.03-.408-.053-.529-1.853-.937-2.388-.642-.535.294-1.605.809-.916-1.003-1.605.648-1.033 2.703.274 2.053z"/><path d="M18.525 11.001a.822.822 0 0 1-.568-.97c.3.435.535.515.822.154-.441-.374-.81-.956-.722-1.197.308.24 1.023.341 1.25-.18-.267.02-.588-.201-.595-.308-.006-.107.02-.997-.314-1.284.348-.134.79.368.79.368.4-.836-1.372-1.244-1.345-1.886.642.187 1.498-.321 1.257-1.645-.267.4-.99 1.45-1.678.214-.69-1.238.053-1.324-1.572-1.686-1.625-.36-1.264-.32-1.96.04-.695.362-.628.482-.956.482s-1.277-.06-1.09 1.19c.455-.441 2.36.234 2.448.382-.12.26-1.144.294-1.485.214.281.548 1.137.595 1.137.595s.843.147.642.856c-.2.709-.508.796-.83.628-.08.676.73.79.997.629-.127.635-.508 1.244-1.117.903.281.816.863.749.863.749.114.568-.93 1.424-2.274 1.17-1.344-.254-2.748-1.184-2.949-1.632-.2-.448.114-.943-.401-1.631s-.783-1.258-.709-1.913c.074-.655-.568-.75-1.164-.234C6.407 5.524 5.8 6.8 5.411 7.764c-.388.963-.742 2.107-1.157 1.792-.415-.314-.615-.481-.615-.481-.1.609.394 1.137.802 1.19-.214.402-.572 2.796-.534 4.196.037 1.4-.53 3.12-1.306 3.111.965.407 1.457-.51 1.457-.51.076.652 1.362 5.967.983 7.84.89-.378.89-1.23.89-1.23.274-.018.7-1.02.69-1.305.36-.312.766-1.409.71-1.825.387-.369.567-1.39.482-1.854.236-.132.35-.51.397-.813.104.34.586.775.775-.369.284 1.088.823.643.927 0 .303.984.814.53.785.047.312.785.785.511.955.104.161.54.7.218.795-.094-.01.53.454.388.955.028-.057.624-.586 1.078-1.04 1.21.68.266 1.371-.283 1.371-.283.16.586-.057 1.135-.501 1.267.785.454 1.173-.34 1.201-.283.16 1.2 1.248 2.137 1.447 2.411.199.275.217.89-.86 1.031.094.284.7.416 1.323.123-.094.407-.17.615-.17.615.303-.123.643-.34.785-.54-.066.332-.284.833-.284.833.7-.01 1.211-.388 1.325-.539.113.227.605.615.747.804s.123.473.123.473.208-.937-.048-1.495c.445.795.426 1.022 1.06 1.258-.152-.368-.464-.68-.53-1.05.378-.047.624-.397.322-.888.558.974 3.215 3.924 4.747 4.454.199-.047.284-.274.284-.274.331.217 1.21.217 1.002-.69.672-.133.785-.88.284-1.164.114-.321-.217-1.22-.586-1.343-.123-.454-.842-1.702-1.107-1.816s-1.456.085-2.317-.53c-.86-.614-2.307-.86-2.563-3.83.256.435 1.069.558 1.069.076.331.539.889.757.7-.142.501.813.804.766.936.208.218.681.738.388.804-.028.17.823.501.823.615.586.236.142-.114 1.04.189.927.303-.114.492-.567.492-.567-.133.718.255 2.014.444 1.938-.17.662.53 1.901.747 1.977.133.719.388 1.069.738 1.069.293 1.191.804 1.626.804 1.626-.284-1.967.19-7.046.7-8.076.766.425 1.002.397 1.002.397-.577-.634-.775-1.967-.7-3.377.076-1.409-.614-3.726-.614-3.726.51.038.728-.274.728-.823-.274.331-.936.294-1.078-.227-.142-.52-1.57-3.764-1.977-4.104-.407-.34-1.343-.795-1.475.246-.133 1.04-.398 1.324-.672 1.957-.274.634-.217 2.1-1.617 2.582-1.4.483-2.38.221-2.727 1.137z"/><path d="M14.639 3.33c.388.241.615.054.91.067.294.014.3.381.695.515-.495.114-.542.462-1.03.328s-.588-.602-.588-.602"/></g><circle cx="15.268" cy="3.832" r=".294"/><g fill="none" stroke="#000" stroke-linecap="round" stroke-linejoin="round" stroke-width=".265"><path d="M13.785 5.465c.692-.274.774-.597.774-.817 0-.22-1.312-1.291-1.368-1.599M16.732 4.668c.575.2.294 1.411.77 1.752-.803.294-.625-.475-1.126-.97"/><path d="M17.181 6.485c.327.43.864.698 1.216.73"/><path d="M17.512 6.819c.418.651.485 1.373.164 1.788-.321.415-.042 1.097-.042 1.097-.293-.16-1.037-.957-.585-1.619"/><path d="M15.875 6.213c-.206.582.086.976.63 1.204.544.227-.393.91-.26 1.424.131.515.588.535.588 1.084 0 .548.274.44.274.44s-.076-.637.105-1.054M15.678 7.931c-.109.582-.903 1.365-1.179 1.318M15.529 9.095c.281.348.407.77.083 1.15-.324.382-.404.642-.41 1.03-.007.388-.405.89-.51.983.095-.4-.234-1.123-.28-1.284-.045-.16.368-.354.368-.528s-.51-.596-.51-.596"/><path d="M16.342 9.076c-.098.434.276.722.17 1.076-.108.353-.656 1.29-.462 1.712-.455-.127-.524-1.154-.586-1.43M17.345 10.861c.337.06.565.134.445.609-.121.474.447.625.855.526-.294-.393-.229-.721-.12-.995M16.976 21.307c.816.568 1.022 2.13 1.022 2.13M21.788 21.741c.742.495 3.615 1.78 3.615 1.78M21.656 22.209c1.022.916 3.908 2.608 4.334 2.655M21.293 22.631c.689.655 3.89 3.195 4.413 3.396M20.798 22.872c.642.903 3.416 3.587 3.905 3.846M4.7 14.347c.105-2.185 1.183-6.337 1.74-7.122.559-.785 1.277-1.191 1.325.133.047 1.324-.256 2.213-.047 2.847.208.633.324 1.178.977.76"/><path d="M8.18 10.139c.616.284.464 1.078.672 1.513.208.435 1.034.874 1.024-.378.083 1.023 1.18 1.532 1.908.51M7.282 7.207c-.274.592-.662.747-.841 1.589-.18.841-1.022 3.735-1.069 5.145-.047 1.409-1.125 2.763-1.315 3.12"/><path d="M5.483 12.949c.148.42 1.386 1.392.828-1.792"/><path d="M7.381 11.346c0 .643.44 1.517.128 1.772-.312.255-1.07-.293-1.07-.293"/><path d="M8.323 11.652c.283.549.51 1.125.151 1.324-.36.199-.658.063-.859-.049M5.043 15.32c.308.692 1.35 2.186 1.757.919"/><path d="M5.372 13.941c.298.87 1.088 2.298 1.428 2.298s.751-.33.683-.813"/><path d="M6.342 13.235c.172.7.9 2.087 1.14 2.19.242.104.717-.125.737-.335"/><path d="M7.22 13.181c.142.574.758 1.81 1 1.909.24.098.737-.07.654-.43"/><path d="M8.208 13.069c.11.455.48 1.462.666 1.59.186.128.664-.208.73-.435"/><path d="M9.302 12.862c.231.378.25 1.228.302 1.362.052.134.473.482.733.033"/><path d="M10.37 13.131c.1.318-.07.904-.033 1.127.038.222.74.819 1.279-.126M11.874 14.191c-.126.515-.227 2.502-.222 3.466"/></g><path fill="#fcdd09" stroke="#000" stroke-linecap="round" stroke-linejoin="round" stroke-width=".265" d="M12.807 10.463c-.125.385.367.725.547.763-.34.425-.86.662-1.03 1.097-.171.435-.048.785-.332 1.078-.284.293-.567.473-.69.501.397.417.898.407 1.352-.189-.104.388-.312.52-.378.776-.066.255.321 1.087-.965.823.794.595.927.586 1.457.255-.076.823-.114 1.05-.757 1.4.653.454.851.265 1.21-.066.161.283.23.438.18.69"/><g fill="none" stroke="#000" stroke-linecap="round" stroke-linejoin="round" stroke-width=".265"><path d="M10.931 14.649c-.004.515-.265 2.623-.234 2.905M10 14.48c.048.549-.112 2.743-.089 3.026M9.045 14.68c.025.433-.09 2.5-.06 2.826M8.101 15.27c.228.432.105 2.273.108 2.605M7.443 15.784c.09.242.29 2.443.37 2.905M6.8 16.239c.236.626.445 3.963.53 4.303M6.111 16.671c.32 1.516.504 5.351.51 5.697M5.043 15.32c.494 2.108.982 6.947.887 8.353M27.085 13.629c-.374-2.595-1.552-6.61-2.006-6.943-.455-.334-1.03-.213-.923.737s.604 3.34-.627 3.166"/><path d="M23.888 6.306c-.214.275.17.667.336.472M23.707 9.958c-.04.394-.488 1.477-.823 1.839s-.637.21-.797.029"/><path d="M22.149 11.329c.013.368-.06.79-.548.996-.489.208-.917-.107-.917-.107M24.684 6.961c.851 1.872 1.4 4.472 1.702 5.77.303 1.296.234 3.272 1.268 4.208M23.474 11.443c-.077.553-.123 1.58.274 1.627.397.047.71-.35.71-.35"/><path d="M24.42 11.196c-.076.616-.19 1.344.038 1.524s.813.038.917-.104"/><path d="M25.555 11.196c-.199.503-.227 1.146-.18 1.42.048.274.464.59.71.59M21.62 12.853c.104.757.096 1.504-.203 1.655-.298.151-1.168.075-.941-.746"/><path d="M22.623 12.528c.057.75-.057 1.61-.284 1.895-.227.285-.64.092-.78-.063"/><path d="M23.748 13.07c-.047.691-.34 1.36-.634 1.494-.293.135-.67-.302-.631-.44"/><path d="M24.771 12.805c-.127.704-.796 1.988-.983 2.128-.187.14-.667-.146-.444-.579"/><path d="M25.775 13.099c-.135.662-.824 2.209-1.185 2.423-.36.214-.895-.378-.802-.589"/><path d="M26.316 14.017c-.1.555-.709 1.806-.936 1.986-.228.18-.975-.18-.79-.481"/><path d="M25.379 16.003c-.128.207.34.655.696.555.356-.1.581-.421.826-.942-.205 1.183-1.016 6.09-.75 7.772"/><path d="M26.075 16.558c-.635 1.993-.753 5.385-.662 5.762M25.476 16.328c-.504 1.06-.59 3.224-.81 4.016M24.674 15.833c-.32.594-.276 1.698-.453 2.572M23.829 15.155c-.44.329-.274 2.448-.203 3.09M23.115 14.565c-.482.92-.313 2.136-.19 2.894M22.271 14.491c-.315.94-.269 2.55-.15 2.997M21.418 14.508c-.445.761-.517 2.16-.233 2.771M20.627 14.433c-.411.965-.393 2.596-.142 2.989M19.54 15.288c-.255.724-.164 1.437-.123 2.057M16.117 13.368c-.08.615.207 1.57.856.782M14.927 12.999c-.413.756.074 2.168.803 1.2"/><path d="M13.984 12.73c-.12.588.045 1.923.859 1.371"/><path d="M12.654 13.714c.24-.318.44-.507.44-.507s-.2 1.602 1.018.749M13.061 14.398c-.027.582.224 1.133.953.939M15.475 15.027c-.02.408.537 1.489.863-.11.067 1.454.809.951 1.15.15"/><path d="M14.031 14.658c-.268.594.403 2.25 1.117.48M15.674 15.622c-.139.93.136 2.06 1.119.73-.368 1.611 1.39.789 1.538-.288M13.656 16.317c.18.93.96 1.715 1.277-.12"/><path d="M14.607 17.145c-.136.797.405 1.863 1.254.332-.114 1.44 1.135.835 1.324-.223"/></g></svg>
